frontend/src/assets/icons/Recipes-light.svg

<svg width="75" height="77" viewBox="0 0 75 77" fill="none" xmlns="http://www.w3.org/2000/svg">
<path d="M0.76001 6.79996C3.90001 3.13996 8.80001 1.37996 13.6 0.969964C18.4 0.559964 23.22 1.35996 27.99 1.99996C38.33 3.38996 48.77 4.07996 59.2 4.06996C62.11 20.33 65.03 36.64 69.86 52.44C71.36 57.36 73.07 62.3 73.27 67.44C54.34 64.42 34.4 61.64 16.46 68.37C13.8 69.37 11.13 70.64 9.34001 72.84C5.00001 51.14 2.18001 29.12 0.92001 7.01996" fill="#D4CDC4"/>
<path d="M53.6301 21.49C53.1201 23.77 53.8201 26.28 55.4201 27.97C55.6401 28.2 55.8801 28.42 56.0601 28.69C56.4101 29.21 56.4901 29.85 56.5701 30.47C57.1801 35.21 57.7901 39.95 58.3901 44.69C58.4201 44.93 58.4601 45.19 58.5901 45.4C58.7201 45.61 59.1801 45.75 59.4201 45.69C59.8401 45.57 60.1601 44.68 60.0601 44.25C59.1501 40.06 58.6701 35.88 57.9701 31.65C57.8101 30.67 58.0801 29.43 58.0001 28.44C57.9701 28.1 57.8101 27.93 57.9401 27.62C58.0501 27.37 58.2201 27.15 58.3901 26.93C59.1001 26.01 59.0501 24.76 58.9901 23.6C58.9301 22.44 58.0601 20.78 58.1501 19.63C58.0901 20.61 57.8301 22.49 57.7801 23.48C57.7601 23.79 57.5901 24.2 57.3001 24.11C57.2001 24.08 57.1301 23.98 57.0701 23.89C56.4301 22.96 55.9101 21.95 55.5101 20.88C55.6101 21.92 55.4701 22.98 55.1301 23.97C55.0901 24.08 55.0401 24.2 54.9301 24.25C54.8001 24.31 54.6601 24.24 54.5501 24.16C53.7601 23.63 53.3701 22.58 53.6201 21.66" fill="#C4B964"/>
<path d="M33.41 17.54L31.3 18.2C30.51 18.45 29.7 18.7 29.06 19.22C28.53 19.64 28.14 20.22 27.77 20.78C26.93 22.03 26.09 23.29 25.5 24.67C24.29 27.48 24.17 30.7 24.92 33.66C25.15 34.57 25.46 35.48 25.97 36.27C26.49 37.09 27.21 37.77 27.91 38.44C29.71 40.15 31.54 41.88 33.72 43.06C35.74 44.15 38 44.74 40.28 45.04C41.38 45.18 42.5 45.26 43.59 45.08C45 44.85 46.3 44.2 47.55 43.52C48.45 43.03 49.35 42.52 50.12 41.84C51.74 40.41 52.67 38.31 52.94 36.17C53.21 34.03 52.87 31.85 52.25 29.78C51.4 26.97 50.03 24.31 48.22 21.99C47.62 21.23 46.98 20.49 46.19 19.93C45.42 19.38 44.55 19.01 43.68 18.66C41.87 17.94 40.01 17.3 38.09 17.04C36.16 16.78 34.14 16.92 32.36 17.71" fill="#C4B964"/>
<path d="M0.760126 6.71002C7.22013 -1.31998 19.1401 0.830022 28.1101 1.52002C38.6401 2.32002 49.1701 3.13002 59.7001 3.93002L59.3201 3.64002C62.9401 20.24 66.5601 36.83 70.1801 53.43C71.2201 58.21 72.2601 62.98 73.3101 67.76L73.6901 67.27C55.1601 64.96 35.7201 62.36 17.2601 66.58C13.5701 67.42 9.43013 69.48 9.25013 73.78C9.23013 74.28 10.0101 74.28 10.0301 73.78C10.2201 69.21 15.2301 67.75 18.9201 67.03C23.3601 66.16 27.8601 65.65 32.3701 65.4C41.1901 64.92 50.0301 65.45 58.8101 66.33C63.7801 66.83 68.7301 67.44 73.6801 68.06C73.9501 68.09 74.1001 67.79 74.0601 67.57C70.4401 50.97 66.8201 34.38 63.2001 17.78C62.1601 13 61.1201 8.23002 60.0701 3.45002C60.0301 3.27002 59.8601 3.18002 59.6901 3.16002C51.0701 2.50002 42.4501 1.84002 33.8201 1.19002C29.6101 0.870022 25.4001 0.530022 21.1901 0.230022C17.2701 -0.0499783 13.2501 -0.199978 9.39013 0.720022C5.86013 1.54002 2.51013 3.29002 0.210126 6.16002C-0.0998741 6.55002 0.450126 7.10002 0.760126 6.71002Z" fill="#2F3F1A"/>
<path d="M0.00010632 6.69999C0.860106 15.86 1.72011 25.03 2.58011 34.19C2.98011 38.41 3.50011 42.57 4.38011 46.72C5.31011 51.09 5.99011 55.43 6.41011 59.88C6.86011 64.64 7.31011 69.41 8.75011 73.99C8.90011 74.47 9.65011 74.26 9.50011 73.78C6.93011 65.65 7.33011 56.92 5.58011 48.61C4.65011 44.21 3.90011 39.85 3.47011 35.37C3.04011 30.89 2.64011 26.5 2.22011 22.06C1.74011 16.94 1.26011 11.82 0.780106 6.69999C0.730106 6.20999 -0.0498937 6.19999 0.00010632 6.69999Z" fill="#2F3F1A"/>
<path d="M6.51022 2.10998C8.93022 18.87 11.3502 35.63 13.7702 52.39C14.4602 57.15 15.1502 61.92 15.8302 66.68C15.9002 67.17 16.6502 66.96 16.5802 66.47C14.1602 49.71 11.7402 32.95 9.32022 16.19C8.63022 11.43 7.94022 6.65999 7.26022 1.89998C7.19022 1.40998 6.44022 1.61998 6.51022 2.10998Z" fill="#2F3F1A"/>
<path d="M8.73002 74.21C11.46 76.38 15.13 76.45 18.46 76.63C22.64 76.86 26.83 76.82 31.01 76.63C39.48 76.24 47.91 75.25 56.37 74.63C61.2 74.27 66.04 74.05 70.88 74.11C71.38 74.11 71.38 73.34 70.88 73.33C54.64 73.12 38.56 76.28 22.32 75.99C20.08 75.95 17.84 75.85 15.61 75.65C13.38 75.45 11.09 75.09 9.28002 73.66C8.89002 73.35 8.34002 73.9 8.73002 74.21Z" fill="#2F3F1A"/>
<path d="M73.4501 67.69C72.6001 69.61 71.7601 71.52 70.9101 73.44C70.7101 73.89 71.3801 74.29 71.5801 73.83C72.4301 71.91 73.2701 70 74.1201 68.08C74.3201 67.63 73.6501 67.23 73.4501 67.69Z" fill="#2F3F1A"/>
<path d="M12.2002 69.57C22.4302 70.17 32.6802 70.29 42.9202 69.87C48.0002 69.66 53.0702 69.32 58.1302 68.84C60.6102 68.6 63.1002 68.28 65.6002 68.35C68.1002 68.42 70.6302 68.8 73.1702 68.6C73.6702 68.56 73.6702 67.78 73.1702 67.82C70.6402 68.03 68.1302 67.64 65.6002 67.57C63.0702 67.5 60.7802 67.8 58.3702 68.03C53.2302 68.52 48.0802 68.87 42.9202 69.08C32.6802 69.5 22.4302 69.38 12.2002 68.78C11.7002 68.75 11.7002 69.53 12.2002 69.56V69.57Z" fill="#2F3F1A"/>
<path d="M10.3801 72.3001C30.8001 73.1201 51.2501 73.0401 71.6701 72.0801C72.1701 72.0601 72.1701 71.2801 71.6701 71.3001C51.2601 72.2601 30.8001 72.3401 10.3801 71.5201C9.88013 71.5001 9.88013 72.2801 10.3801 72.3001Z" fill="#2F3F1A"/>
<path d="M19.5502 28.41C18.4202 26.52 17.0202 25.87 16.3402 23.78C16.1902 23.32 16.5402 21.48 16.6102 21C16.6902 20.4 17.0802 19.9 17.4502 19.43C17.5402 19.31 17.6402 19.19 17.7802 19.15C17.8902 19.11 18.3402 18.68 18.4602 18.71C19.9702 19.06 21.4602 20.76 21.8202 22.26C22.1802 23.76 21.2202 25.52 20.7702 27.01C20.6402 27.45 20.4902 27.88 20.4102 28.33C20.2802 29.14 20.3902 29.97 20.5502 30.78C20.7502 31.79 21.0302 32.78 21.3002 33.78C22.3402 37.66 23.2302 41.62 23.1902 45.63C23.1902 45.94 23.1602 46.29 22.9102 46.48C22.6602 46.68 22.2802 46.6 22.0402 46.39C21.8002 46.18 21.6802 45.87 21.5802 45.57C21.2802 44.63 21.1402 43.65 21.0102 42.68C20.3602 38.01 19.7102 33.31 19.8502 28.6" fill="#C4B964"/>
<path d="M19.76 28.73C19.09 27.39 17.96 26.37 17.21 25.08C16.46 23.79 16.2 22.29 16.63 20.89C16.82 20.27 17.15 19.63 17.66 19.22C18.39 18.63 19.1 18.99 19.67 19.6C20.69 20.69 21.42 22.13 21.62 23.61C21.87 25.42 21.16 27.03 20.34 28.59C20.1 29.03 20.78 29.43 21.01 28.98C21.86 27.39 22.6 25.72 22.43 23.87C22.27 22.12 21.49 20.47 20.33 19.16C19.81 18.57 19.13 18.03 18.29 18.11C17.54 18.19 16.95 18.7 16.53 19.3C15.6 20.62 15.45 22.38 15.87 23.91C16.44 25.96 18.16 27.26 19.08 29.12C19.3 29.57 19.97 29.18 19.75 28.73H19.76Z" fill="#2F3F1A"/>
<path d="M19.08 29.1601C19.62 32.9201 19.7 36.7201 20.02 40.5001C20.16 42.0701 20.26 43.7201 20.63 45.2601C20.86 46.2401 21.59 47.3701 22.75 47.2701C24.07 47.1601 23.8 45.6501 23.68 44.7401C23.46 43.1001 23.24 41.4601 22.99 39.8201C22.44 36.1501 21.8 32.4901 21.03 28.8501C20.93 28.3601 20.18 28.5701 20.28 29.0601C20.89 31.9601 21.43 34.8801 21.9 37.8101C22.13 39.2301 22.34 40.6601 22.54 42.0801C22.66 42.9101 22.77 43.7301 22.88 44.5601C22.93 44.9701 23.32 47.1201 22.08 46.2801C21.51 45.9001 21.4 45.1701 21.29 44.5501C21.15 43.7201 21.04 42.8801 20.95 42.0501C20.79 40.6101 20.69 39.1601 20.6 37.7101C20.41 34.7801 20.25 31.8401 19.83 28.9301C19.76 28.4401 19.01 28.6501 19.08 29.1401V29.1601Z" fill="#2F3F1A"/>
<path d="M52.6401 18.15C52.5301 20.27 52.6501 22.39 53.0301 24.48C53.1801 25.29 53.3501 26.14 53.7301 26.88C54.1801 27.77 55.0901 28.27 55.4701 29.16C55.9301 30.25 55.8501 31.67 55.9601 32.85C56.0701 34.03 56.1801 35.14 56.2901 36.28C56.5301 38.66 56.8001 41.03 57.1001 43.4C57.2801 44.83 57.0301 46.18 58.6701 46.46C59.7101 46.64 60.7001 46.64 60.6301 45.43C60.5001 43.13 59.8801 40.76 59.5101 38.49C59.1401 36.22 58.7901 34.02 58.4301 31.79C58.1801 30.25 57.8001 28.85 58.6601 27.44C59.1401 26.65 59.3301 25.99 59.2901 25.05C59.2001 22.64 58.7701 20.2 58.3501 17.83C58.2601 17.34 57.5101 17.55 57.6001 18.04C57.8401 19.4 58.0501 20.77 58.2201 22.14C58.3601 23.27 58.6001 24.5 58.5101 25.64C58.4201 26.78 57.5001 27.45 57.3401 28.55C57.2101 29.46 57.4101 30.39 57.5601 31.28C57.9701 33.83 58.3801 36.38 58.8001 38.94C58.9801 40.06 59.1601 41.17 59.3401 42.29C59.4401 42.93 59.5501 43.57 59.6501 44.2C59.7001 44.52 59.7501 44.84 59.8001 45.16C59.9301 45.72 59.7501 45.92 59.2501 45.75C57.6701 46.02 57.8201 42.97 57.7001 41.93C57.5601 40.79 57.4301 39.64 57.3101 38.49C57.0201 35.88 56.7701 33.26 56.5501 30.64C56.4901 29.89 56.5201 29.1 56.1001 28.45C55.4801 27.48 54.5501 27.04 54.1601 25.86C53.3501 23.45 53.2901 20.67 53.4201 18.15C53.4501 17.65 52.6701 17.65 52.6401 18.15Z" fill="#2F3F1A"/>
<path d="M52.73 18.27C52.89 19.39 53.13 20.5 53.44 21.59C53.6 22.14 53.78 22.69 53.98 23.24C54.15 23.7 54.33 24.21 54.88 24.31C55.43 24.41 55.65 23.99 55.63 23.52C55.6 22.92 55.56 22.33 55.53 21.73C55.46 20.52 55.39 19.3 55.32 18.09L54.56 18.19C54.95 19.29 55.35 20.39 55.74 21.5C55.93 22.04 56.12 22.59 56.32 23.12C56.48 23.54 56.68 23.89 57.12 24.06C57.27 24.12 57.49 24.02 57.56 23.88C57.76 23.48 57.8 23.06 57.83 22.62C57.87 22.08 57.91 21.55 57.95 21.01C58.03 19.96 58.11 18.91 58.19 17.86C58.23 17.36 57.45 17.36 57.41 17.86C57.34 18.83 57.26 19.8 57.19 20.78C57.15 21.26 57.12 21.73 57.08 22.21C57.05 22.62 57.08 23.12 56.89 23.49L57.33 23.31C57.2 23.26 57.13 23.07 57.09 22.95C57 22.72 56.92 22.48 56.84 22.24L56.34 20.84C56 19.89 55.66 18.93 55.32 17.98C55.18 17.59 54.53 17.62 54.56 18.08C54.62 19.07 54.68 20.07 54.73 21.06L54.82 22.55L54.86 23.33C54.86 23.38 54.86 23.63 54.88 23.64L55.03 23.53C55.03 23.53 54.97 23.5 54.95 23.47C54.56 22.63 54.3 21.72 54.06 20.82C53.82 19.92 53.63 18.98 53.5 18.05C53.47 17.84 53.21 17.73 53.02 17.78C52.8 17.84 52.72 18.05 52.75 18.26L52.73 18.27Z" fill="#2F3F1A"/>
<path d="M31.7 19.84C34.75 18.96 37.95 18.62 41.06 19.46C44.17 20.3 46.47 22.2 48.47 24.59C50.47 26.98 51.53 30.46 51.79 33.49C52.02 36.19 51.2 38.97 49.38 41C45.04 45.84 37.42 44.71 32.34 41.75C28.99 39.8 26.77 35.28 26.04 31.6C25.61 29.42 25.68 27.08 26.58 25.03C27.62 22.67 29.62 21.04 31.88 19.91C32.33 19.69 31.94 19.02 31.49 19.24C27.12 21.4 24.57 25.43 25.07 30.36C25.49 34.52 27.73 39.33 31.13 41.89C32.36 42.81 33.87 43.39 35.31 43.93C37.02 44.57 38.8 45.02 40.63 45.1C43.56 45.23 46.61 44.46 48.89 42.56C53.77 38.51 53.11 31.55 50.57 26.36C49.03 23.22 45.89 20.43 42.65 19.18C39.04 17.78 35.14 18.05 31.48 19.11C31 19.25 31.2 20 31.69 19.86L31.7 19.84Z" fill="#2F3F1A"/>
<path d="M30.8301 18.17C34.3501 17.15 38.0401 16.79 41.6001 17.83C44.9401 18.81 47.5401 20.99 49.7101 23.65C50.9101 25.11 51.6201 26.75 52.1601 28.54C52.7001 30.33 53.2701 32.19 53.3201 34.08C53.4101 37 52.3901 39.92 50.3801 42.06C45.4901 47.24 36.9701 45.96 31.4201 42.6C27.6801 40.34 25.2101 35.24 24.4501 31.08C24.0201 28.72 24.1301 26.21 25.1001 23.99C26.2601 21.34 28.5001 19.5 31.0401 18.25C31.4901 18.03 31.1001 17.36 30.6501 17.58C25.9301 19.91 23.0701 24.23 23.4801 29.57C23.8401 34.25 26.2801 39.47 29.9201 42.5C31.2401 43.6 32.9101 44.25 34.5001 44.87C36.2901 45.57 38.1401 46.09 40.0601 46.27C43.3801 46.57 46.9201 45.85 49.6101 43.81C55.3601 39.45 54.7301 31.74 52.0101 25.81C50.4101 22.31 46.9501 19.11 43.4101 17.65C39.3001 15.96 34.8301 16.21 30.6401 17.43C30.1601 17.57 30.3601 18.32 30.8501 18.18L30.8301 18.17Z" fill="#2F3F1A"/>
</svg>

<?xml version="1.0" encoding="UTF-8"?>
<svg id="Capa_2" data-name="Capa 2" xmlns="http://www.w3.org/2000/svg" viewBox="0 0 74.16 76.79">
  <defs>
    <style>
      .cls-1 {
        fill: #2f3f1a;
      }

      .cls-1, .cls-2, .cls-3 {
        stroke-width: 0px;
      }

      .cls-2 {
        fill: #c7702d;
      }

      .cls-3 {
        fill: #edcd46;
      }
    </style>
  </defs>
  <g id="Light_Version" data-name="Light Version">
    <g>
      <path class="cls-3" d="M.76,6.8C3.9,3.14,8.8,1.38,13.6.97c4.8-.41,9.62.39,14.39,1.03,10.34,1.39,20.78,2.08,31.21,2.07,2.91,16.26,5.83,32.57,10.66,48.37,1.5,4.92,3.21,9.86,3.41,15-18.93-3.02-38.87-5.8-56.81.93-2.66,1-5.33,2.27-7.12,4.47C5,51.14,2.18,29.12.92,7.02"/>
      <g>
        <path class="cls-2" d="M53.63,21.49c-.51,2.28.19,4.79,1.79,6.48.22.23.46.45.64.72.35.52.43,1.16.51,1.78.61,4.74,1.22,9.48,1.82,14.22.03.24.07.5.2.71s.59.35.83.29c.42-.12.74-1.01.64-1.44-.91-4.19-1.39-8.37-2.09-12.6-.16-.98.11-2.22.03-3.21-.03-.34-.19-.51-.06-.82.11-.25.28-.47.45-.69.71-.92.66-2.17.6-3.33s-.93-2.82-.84-3.97c-.06.98-.32,2.86-.37,3.85-.02.31-.19.72-.48.63-.1-.03-.17-.13-.23-.22-.64-.93-1.16-1.94-1.56-3.01.1,1.04-.04,2.1-.38,3.09-.04.11-.09.23-.2.28-.13.06-.27-.01-.38-.09-.79-.53-1.18-1.58-.93-2.5"/>
        <path class="cls-2" d="M33.41,17.54l-2.11.66c-.79.25-1.6.5-2.24,1.02-.53.42-.92,1-1.29,1.56-.84,1.25-1.68,2.51-2.27,3.89-1.21,2.81-1.33,6.03-.58,8.99.23.91.54,1.82,1.05,2.61.52.82,1.24,1.5,1.94,2.17,1.8,1.71,3.63,3.44,5.81,4.62,2.02,1.09,4.28,1.68,6.56,1.98,1.1.14,2.22.22,3.31.04,1.41-.23,2.71-.88,3.96-1.56.9-.49,1.8-1,2.57-1.68,1.62-1.43,2.55-3.53,2.82-5.67s-.07-4.32-.69-6.39c-.85-2.81-2.22-5.47-4.03-7.79-.6-.76-1.24-1.5-2.03-2.06-.77-.55-1.64-.92-2.51-1.27-1.81-.72-3.67-1.36-5.59-1.62-1.93-.26-3.95-.12-5.73.67"/>
        <path class="cls-1" d="M.76,6.71C7.22-1.32,19.14.83,28.11,1.52c10.53.8,21.06,1.61,31.59,2.41l-.38-.29c3.62,16.6,7.24,33.19,10.86,49.79,1.04,4.78,2.08,9.55,3.13,14.33l.38-.49c-18.53-2.31-37.97-4.91-56.43-.69-3.69.84-7.83,2.9-8.01,7.2-.02.5.76.5.78,0,.19-4.57,5.2-6.03,8.89-6.75,4.44-.87,8.94-1.38,13.45-1.63,8.82-.48,17.66.05,26.44.93,4.97.5,9.92,1.11,14.87,1.73.27.03.42-.27.38-.49-3.62-16.6-7.24-33.19-10.86-49.79-1.04-4.78-2.08-9.55-3.13-14.33-.04-.18-.21-.27-.38-.29-8.62-.66-17.24-1.32-25.87-1.97-4.21-.32-8.42-.66-12.63-.96-3.92-.28-7.94-.43-11.8.49C5.86,1.54,2.51,3.29.21,6.16c-.31.39.24.94.55.55h0Z"/>
        <path class="cls-1" d="M0,6.7c.86,9.16,1.72,18.33,2.58,27.49.4,4.22.92,8.38,1.8,12.53.93,4.37,1.61,8.71,2.03,13.16.45,4.76.9,9.53,2.34,14.11.15.48.9.27.75-.21-2.57-8.13-2.17-16.86-3.92-25.17-.93-4.4-1.68-8.76-2.11-13.24s-.83-8.87-1.25-13.31c-.48-5.12-.96-10.24-1.44-15.36-.05-.49-.83-.5-.78,0H0Z"/>
        <path class="cls-1" d="M6.51,2.11c2.42,16.76,4.84,33.52,7.26,50.28.69,4.76,1.38,9.53,2.06,14.29.07.49.82.28.75-.21-2.42-16.76-4.84-33.52-7.26-50.28-.69-4.76-1.38-9.53-2.06-14.29-.07-.49-.82-.28-.75.21h0Z"/>
        <path class="cls-1" d="M8.73,74.21c2.73,2.17,6.4,2.24,9.73,2.42,4.18.23,8.37.19,12.55,0,8.47-.39,16.9-1.38,25.36-2,4.83-.36,9.67-.58,14.51-.52.5,0,.5-.77,0-.78-16.24-.21-32.32,2.95-48.56,2.66-2.24-.04-4.48-.14-6.71-.34s-4.52-.56-6.33-1.99c-.39-.31-.94.24-.55.55h0Z"/>
        <path class="cls-1" d="M73.45,67.69c-.85,1.92-1.69,3.83-2.54,5.75-.2.45.47.85.67.39.85-1.92,1.69-3.83,2.54-5.75.2-.45-.47-.85-.67-.39h0Z"/>
        <path class="cls-1" d="M12.2,69.57c10.23.6,20.48.72,30.72.3,5.08-.21,10.15-.55,15.21-1.03,2.48-.24,4.97-.56,7.47-.49s5.03.45,7.57.25c.5-.04.5-.82,0-.78-2.53.21-5.04-.18-7.57-.25s-4.82.23-7.23.46c-5.14.49-10.29.84-15.45,1.05-10.24.42-20.49.3-30.72-.3-.5-.03-.5.75,0,.78h0Z"/>
        <path class="cls-1" d="M10.38,72.3c20.42.82,40.87.74,61.29-.22.5-.02.5-.8,0-.78-20.41.96-40.87,1.04-61.29.22-.5-.02-.5.76,0,.78h0Z"/>
        <path class="cls-2" d="M19.55,28.41c-1.13-1.89-2.53-2.54-3.21-4.63-.15-.46.2-2.3.27-2.78.08-.6.47-1.1.84-1.57.09-.12.19-.24.33-.28.11-.04.56-.47.68-.44,1.51.35,3,2.05,3.36,3.55s-.6,3.26-1.05,4.75c-.13.44-.28.87-.36,1.32-.13.81-.02,1.64.14,2.45.2,1.01.48,2,.75,3,1.04,3.88,1.93,7.84,1.89,11.85,0,.31-.03.66-.28.85-.25.2-.63.12-.87-.09s-.36-.52-.46-.82c-.3-.94-.44-1.92-.57-2.89-.65-4.67-1.3-9.37-1.16-14.08"/>
        <g>
          <path class="cls-1" d="M19.76,28.73c-.67-1.34-1.8-2.36-2.55-3.65s-1.01-2.79-.58-4.19c.19-.62.52-1.26,1.03-1.67.73-.59,1.44-.23,2.01.38,1.02,1.09,1.75,2.53,1.95,4.01.25,1.81-.46,3.42-1.28,4.98-.24.44.44.84.67.39.85-1.59,1.59-3.26,1.42-5.11-.16-1.75-.94-3.4-2.1-4.71-.52-.59-1.2-1.13-2.04-1.05-.75.08-1.34.59-1.76,1.19-.93,1.32-1.08,3.08-.66,4.61.57,2.05,2.29,3.35,3.21,5.21.22.45.89.06.67-.39h0Z"/>
          <path class="cls-1" d="M19.08,29.16c.54,3.76.62,7.56.94,11.34.14,1.57.24,3.22.61,4.76.23.98.96,2.11,2.12,2.01,1.32-.11,1.05-1.62.93-2.53-.22-1.64-.44-3.28-.69-4.92-.55-3.67-1.19-7.33-1.96-10.97-.1-.49-.85-.28-.75.21.61,2.9,1.15,5.82,1.62,8.75.23,1.42.44,2.85.64,4.27.12.83.23,1.65.34,2.48.05.41.44,2.56-.8,1.72-.57-.38-.68-1.11-.79-1.73-.14-.83-.25-1.67-.34-2.5-.16-1.44-.26-2.89-.35-4.34-.19-2.93-.35-5.87-.77-8.78-.07-.49-.82-.28-.75.21h0Z"/>
          <path class="cls-1" d="M52.64,18.15c-.11,2.12.01,4.24.39,6.33.15.81.32,1.66.7,2.4.45.89,1.36,1.39,1.74,2.28.46,1.09.38,2.51.49,3.69s.22,2.29.33,3.43c.24,2.38.51,4.75.81,7.12.18,1.43-.07,2.78,1.57,3.06,1.04.18,2.03.18,1.96-1.03-.13-2.3-.75-4.67-1.12-6.94s-.72-4.47-1.08-6.7c-.25-1.54-.63-2.94.23-4.35.48-.79.67-1.45.63-2.39-.09-2.41-.52-4.85-.94-7.22-.09-.49-.84-.28-.75.21.24,1.36.45,2.73.62,4.1.14,1.13.38,2.36.29,3.5s-1.01,1.81-1.17,2.91c-.13.91.07,1.84.22,2.73.41,2.55.82,5.1,1.24,7.66.18,1.12.36,2.23.54,3.35.1.64.21,1.28.31,1.91.05.32.1.64.15.96.13.56-.05.76-.55.59-1.58.27-1.43-2.78-1.55-3.82-.14-1.14-.27-2.29-.39-3.44-.29-2.61-.54-5.23-.76-7.85-.06-.75-.03-1.54-.45-2.19-.62-.97-1.55-1.41-1.94-2.59-.81-2.41-.87-5.19-.74-7.71.03-.5-.75-.5-.78,0h0Z"/>
          <path class="cls-1" d="M52.73,18.27c.16,1.12.4,2.23.71,3.32.16.55.34,1.1.54,1.65.17.46.35.97.9,1.07s.77-.32.75-.79c-.03-.6-.07-1.19-.1-1.79-.07-1.21-.14-2.43-.21-3.64l-.76.1c.39,1.1.79,2.2,1.18,3.31.19.54.38,1.09.58,1.62.16.42.36.77.8.94.15.06.37-.04.44-.18.2-.4.24-.82.27-1.26.04-.54.08-1.07.12-1.61.08-1.05.16-2.1.24-3.15.04-.5-.74-.5-.78,0-.07.97-.15,1.94-.22,2.92-.04.48-.07.95-.11,1.43-.03.41,0,.91-.19,1.28l.44-.18c-.13-.05-.2-.24-.24-.36-.09-.23-.17-.47-.25-.71l-.5-1.4c-.34-.95-.68-1.91-1.02-2.86-.14-.39-.79-.36-.76.1.06.99.12,1.99.17,2.98l.09,1.49.04.78c0,.05,0,.3.02.31l.15-.11s-.06-.03-.08-.06c-.39-.84-.65-1.75-.89-2.65s-.43-1.84-.56-2.77c-.03-.21-.29-.32-.48-.27-.22.06-.3.27-.27.48h0Z"/>
          <path class="cls-1" d="M31.7,19.84c3.05-.88,6.25-1.22,9.36-.38s5.41,2.74,7.41,5.13,3.06,5.87,3.32,8.9c.23,2.7-.59,5.48-2.41,7.51-4.34,4.84-11.96,3.71-17.04.75-3.35-1.95-5.57-6.47-6.3-10.15-.43-2.18-.36-4.52.54-6.57,1.04-2.36,3.04-3.99,5.3-5.12.45-.22.06-.89-.39-.67-4.37,2.16-6.92,6.19-6.42,11.12.42,4.16,2.66,8.97,6.06,11.53,1.23.92,2.74,1.5,4.18,2.04,1.71.64,3.49,1.09,5.32,1.17,2.93.13,5.98-.64,8.26-2.54,4.88-4.05,4.22-11.01,1.68-16.2-1.54-3.14-4.68-5.93-7.92-7.18-3.61-1.4-7.51-1.13-11.17-.07-.48.14-.28.89.21.75h0Z"/>
          <path class="cls-1" d="M30.83,18.17c3.52-1.02,7.21-1.38,10.77-.34,3.34.98,5.94,3.16,8.11,5.82,1.2,1.46,1.91,3.1,2.45,4.89s1.11,3.65,1.16,5.54c.09,2.92-.93,5.84-2.94,7.98-4.89,5.18-13.41,3.9-18.96.54-3.74-2.26-6.21-7.36-6.97-11.52-.43-2.36-.32-4.87.65-7.09,1.16-2.65,3.4-4.49,5.94-5.74.45-.22.06-.89-.39-.67-4.72,2.33-7.58,6.65-7.17,11.99.36,4.68,2.8,9.9,6.44,12.93,1.32,1.1,2.99,1.75,4.58,2.37,1.79.7,3.64,1.22,5.56,1.4,3.32.3,6.86-.42,9.55-2.46,5.75-4.36,5.12-12.07,2.4-18-1.6-3.5-5.06-6.7-8.6-8.16-4.11-1.69-8.58-1.44-12.77-.22-.48.14-.28.89.21.75h0Z"/>
        </g>
      </g>
    </g>
  </g>
</svg>
